school/img/country/KG.svg

<svg width="13" height="12" viewBox="0 0 13 12" fill="none" xmlns="http://www.w3.org/2000/svg">
<rect width="13" height="12" rx="2" fill="white"/>
<mask id="mask0" mask-type="alpha" maskUnits="userSpaceOnUse" x="0" y="0" width="13" height="12">
<rect width="13" height="12" rx="2" fill="white"/>
</mask>
<g mask="url(#mask0)">
<rect width="13" height="12" fill="#F22A46"/>
<path fill-rule="evenodd" clip-rule="evenodd" d="M6.50001 8C7.35474 8 8.04763 7.10457 8.04763 6C8.04763 4.89543 7.35474 4 6.50001 4C5.64529 4 4.95239 4.89543 4.95239 6C4.95239 7.10457 5.64529 8 6.50001 8Z" fill="#FFF04D"/>
<path fill-rule="evenodd" clip-rule="evenodd" d="M5.74235 10.2897L6.49998 8.82818L7.25761 10.2897L7.44952 8.5481L8.62281 9.44007L8.21099 7.76334L9.56756 7.9091L8.63357 6.62934L9.90474 6.00001L8.63357 5.37068L9.56756 4.09092L8.21099 4.23668L8.62281 2.55995L7.44952 3.45192L7.25761 1.71033L6.49998 3.17184L5.74235 1.71033L5.55044 3.45192L4.37714 2.55995L4.78897 4.23668L3.43239 4.09092L4.36638 5.37068L3.09521 6.00001L4.36638 6.62934L3.43239 7.9091L4.78897 7.76334L4.37714 9.44007L5.55044 8.5481L5.74235 10.2897ZM8.66666 6C8.66666 7.5464 7.69661 8.8 6.5 8.8C5.30338 8.8 4.33333 7.5464 4.33333 6C4.33333 4.4536 5.30338 3.2 6.5 3.2C7.69661 3.2 8.66666 4.4536 8.66666 6Z" fill="#FFF04D"/>
</g>
</svg>

<svg width="13" height="12" fill="none" xmlns="http://www.w3.org/2000/svg"><rect width="13" height="12" rx="2" fill="#fff"/><mask id="a" maskUnits="userSpaceOnUse" x="0" y="0" width="13" height="12"><rect width="13" height="12" rx="2" fill="#fff"/></mask><g mask="url(#a)"><path fill="#F22A46" d="M0 0h13v12H0z"/><path fill-rule="evenodd" clip-rule="evenodd" d="M6.5 8c.855 0 1.548-.895 1.548-2S7.355 4 6.5 4c-.855 0-1.548.895-1.548 2S5.645 8 6.5 8z" fill="#FFF04D"/><path fill-rule="evenodd" clip-rule="evenodd" d="M5.742 10.29L6.5 8.828l.758 1.462.192-1.742 1.173.892-.412-1.677 1.357.146-.934-1.28L9.904 6l-1.27-.63.934-1.28-1.357.147.412-1.677-1.173.892-.192-1.742L6.5 3.172 5.742 1.71 5.55 3.452 4.377 2.56l.412 1.677-1.357-.146.934 1.28L3.096 6l1.27.63-.934 1.28 1.357-.147-.412 1.677 1.173-.892.192 1.742zM8.667 6c0 1.546-.97 2.8-2.167 2.8-1.197 0-2.167-1.254-2.167-2.8 0-1.546.97-2.8 2.167-2.8 1.197 0 2.167 1.254 2.167 2.8z" fill="#FFF04D"/></g></svg>
